X: 20
T: Morning Dew, The
Z: chansherly212
S: https://thesession.org/tunes/69#setting53913
R: reel
M: 4/4
L: 1/8
K: Edor
|:"Em" ~E3B BAFD|"Em"EBEB "D"AGFD|"Em"~E3B BAFA|"D" BcdB ADFA:|
|:"Em"B2 eB fBeB|"Em"B2 ed "D"BAFA|1"Em"B2 gB fBeB|"D"dcdB ADFA:|2"Em" (3Bcd eg"D" f3e | "D"~d3A BAFA||
|:"Em"B2EB GBEB|"Em"B2EB "D"ADFA|"Em"B2EB GBEB|"D"BcdB ADFA:|

%-------------------- TUNE SEPARATOR --------------------%

